X: 3192
T: Beehive, The
R: reel
M: 4/4
K: Bminor
|:B2 ^f2 b a2 e-|e^f AB ^cd ef|B^f bf ^c'f d'c'-|^c'd' b^c' d' ^f'2 B-|
B2 ^f2 b a2 e-|e^f AB ^cd ef|b^f d' ^c'2 d' bd'|^c'd' bd' c'b a^f:|
|:dd BA B2 ge-|ee ed ^cd e^f|dd BA B2 ge-|ed e^f a4|
dd BA B2 ge-|ee ed ^cd ea|^ff ed e2 dB-|BB AB d B3:|

